src/assets/img/payment/payment_method_g_pay.svg

<svg width="27" height="20" viewBox="0 0 27 20" fill="none" xmlns="http://www.w3.org/2000/svg">
<g clip-path="url(#clip0_4902_30889)">
<path d="M24.5035 0.5C25.0459 0.5 25.5416 0.730838 25.9059 1.11401C26.2708 1.49788 26.5 2.03156 26.5 2.62548V17.3745C26.5 17.9676 26.2703 18.5003 25.9054 18.884C25.5396 19.2689 25.0428 19.5 24.5035 19.5H2.49649C1.95412 19.5 1.45841 19.2692 1.09412 18.886C0.729163 18.5021 0.5 17.9684 0.5 17.3745V2.62548C0.5 2.03237 0.729713 1.49973 1.09458 1.11595C1.46044 0.731137 1.95718 0.5 2.49649 0.5H24.5035Z" fill="white" stroke="#F3F3F3"/>
<path d="M13.0123 10.1598V12.3173H12.3477V6.98925H14.1105C14.5355 6.98011 14.9465 7.14616 15.252 7.45051C15.5612 7.73685 15.735 8.14682 15.7289 8.57495C15.7377 9.00547 15.5635 9.4185 15.252 9.70577C14.9438 10.0085 14.5633 10.1597 14.1105 10.1594H13.0123V10.1598ZM13.0123 7.64521V9.50511H14.127C14.3741 9.51266 14.6129 9.41265 14.7847 9.22964C14.9555 9.05867 15.0518 8.82383 15.0518 8.57856C15.0518 8.3333 14.9555 8.09846 14.7847 7.92749C14.6149 7.74054 14.3755 7.6376 14.127 7.64479H13.0123V7.64521Z" fill="#5F6368"/>
<path d="M17.2606 8.55298C17.7519 8.55298 18.1397 8.68817 18.424 8.95854C18.7083 9.22892 18.8504 9.59963 18.8501 10.0707V12.3174H18.2143V11.8115H18.1854C17.9102 12.2281 17.5441 12.4365 17.0872 12.4365C16.6972 12.4365 16.371 12.3174 16.1084 12.0794C15.8532 11.8581 15.7085 11.5301 15.7145 11.1866C15.7145 10.8094 15.853 10.5094 16.1299 10.2866C16.4067 10.0639 16.7764 9.95219 17.2388 9.95163C17.6334 9.95163 17.9585 10.026 18.2139 10.1748V10.0184C18.2154 9.78422 18.1146 9.56177 17.9394 9.41257C17.7636 9.24927 17.5345 9.16017 17.2978 9.16303C16.9265 9.16303 16.6327 9.32429 16.4164 9.64681L15.831 9.26718C16.153 8.79105 16.6295 8.55298 17.2606 8.55298ZM16.4007 11.2015C16.3998 11.3782 16.4819 11.5445 16.6211 11.6479C16.7681 11.7669 16.9506 11.83 17.1376 11.8264C17.4181 11.8259 17.687 11.711 17.8853 11.5067C18.1055 11.2933 18.2155 11.0429 18.2155 10.7555C18.0083 10.5855 17.7193 10.5005 17.3486 10.5005C17.0786 10.5005 16.8534 10.5675 16.6732 10.7015C16.4911 10.8376 16.4007 11.003 16.4007 11.2015Z" fill="#5F6368"/>
<path fill-rule="evenodd" clip-rule="evenodd" d="M22.4999 8.67188L20.2804 13.9242H19.5943L20.4179 12.0864L18.9585 8.67188H19.681L20.7358 11.2906H20.7502L21.7762 8.67188H22.4999Z" fill="#5F6368"/>
<path fill-rule="evenodd" clip-rule="evenodd" d="M10.3266 9.69489C10.3268 9.4863 10.3097 9.27808 10.2754 9.07251H7.47217V10.2514H9.07772C9.01133 10.6318 8.79687 10.9678 8.48405 11.1815V11.9468H9.44226C10.0033 11.4141 10.3266 10.6263 10.3266 9.69489Z" fill="#4285F4"/>
<path fill-rule="evenodd" clip-rule="evenodd" d="M7.47223 12.686C8.27439 12.686 8.9498 12.4148 9.44233 11.9471L8.48411 11.1819C8.21742 11.3681 7.87393 11.4744 7.47223 11.4744C6.69691 11.4744 6.03884 10.9362 5.80352 10.2109H4.81641V10.9995C5.32097 12.0334 6.34856 12.6859 7.47223 12.686Z" fill="#34A853"/>
<path fill-rule="evenodd" clip-rule="evenodd" d="M5.80363 10.2107C5.67922 9.83068 5.67922 9.41913 5.80363 9.03909V8.25049H4.81652C4.39449 9.11524 4.39449 10.1346 4.81652 10.9993L5.80363 10.2107Z" fill="#FBBC04"/>
<path fill-rule="evenodd" clip-rule="evenodd" d="M7.47223 7.77576C7.89614 7.76863 8.30574 7.93355 8.61251 8.23489L9.4609 7.36127C8.92293 6.84095 8.21024 6.55529 7.47223 6.56417C6.34856 6.56422 5.32097 7.21674 4.81641 8.25062L5.80352 9.03922C6.03884 8.31396 6.69691 7.77576 7.47223 7.77576Z" fill="#EA4335"/>
</g>
<defs>
<clipPath id="clip0_4902_30889">
<rect width="27" height="20" fill="white"/>
</clipPath>
</defs>
</svg>

<svg width="27" height="20" fill="none" xmlns="http://www.w3.org/2000/svg"><g clip-path="url(#a)"><path d="M24.503.5c.543 0 1.039.23 1.403.614.365.384.594.918.594 1.511v14.75c0 .593-.23 1.125-.595 1.509a1.93 1.93 0 0 1-1.402.616H2.496c-.542 0-1.038-.23-1.402-.614A2.188 2.188 0 0 1 .5 17.375V2.625c0-.593.23-1.125.595-1.509A1.93 1.93 0 0 1 2.496.5h22.007Z" fill="#fff" stroke="#F3F3F3"/><path d="M13.012 10.16v2.157h-.664V6.99h1.762a1.57 1.57 0 0 1 1.142.462c.31.286.483.696.477 1.124.009.43-.165.844-.477 1.13a1.564 1.564 0 0 1-1.142.454h-1.098Zm0-2.515v1.86h1.115a.866.866 0 0 0 .658-.275.921.921 0 0 0 .267-.651.921.921 0 0 0-.267-.652.855.855 0 0 0-.658-.282h-1.115ZM17.26 8.553c.492 0 .88.135 1.164.406.284.27.426.64.426 1.112v2.246h-.636v-.505h-.029c-.275.416-.64.625-1.098.625-.39 0-.716-.12-.979-.358-.255-.22-.4-.549-.394-.892 0-.378.139-.678.416-.9.277-.223.646-.335 1.109-.335.394 0 .72.074.975.223v-.157a.789.789 0 0 0-.275-.605.926.926 0 0 0-.641-.25c-.371 0-.665.161-.882.484l-.585-.38c.322-.476.799-.714 1.43-.714Zm-.86 2.648c0 .177.082.343.221.447.147.119.33.182.517.178.28 0 .549-.115.747-.32.22-.213.33-.463.33-.75-.207-.17-.496-.255-.866-.255a1.1 1.1 0 0 0-.676.2c-.182.137-.272.302-.272.5Z" fill="#5F6368"/><path fill-rule="evenodd" clip-rule="evenodd" d="m22.5 8.672-2.22 5.252h-.686l.824-1.838-1.46-3.414h.723l1.055 2.619h.014l1.026-2.62h.724Z" fill="#5F6368"/><path fill-rule="evenodd" clip-rule="evenodd" d="M10.327 9.695a3.76 3.76 0 0 0-.052-.622H7.472v1.178h1.606a1.42 1.42 0 0 1-.594.93v.766h.958c.561-.533.885-1.32.885-2.252Z" fill="#4285F4"/><path fill-rule="evenodd" clip-rule="evenodd" d="M7.472 12.686c.802 0 1.478-.271 1.97-.739l-.958-.765c-.267.186-.61.292-1.012.292-.775 0-1.433-.538-1.668-1.263h-.988v.788a2.965 2.965 0 0 0 2.656 1.687Z" fill="#34A853"/><path fill-rule="evenodd" clip-rule="evenodd" d="M5.804 10.21a1.886 1.886 0 0 1 0-1.17v-.79h-.987a3.142 3.142 0 0 0 0 2.75l.987-.79Z" fill="#FBBC04"/><path fill-rule="evenodd" clip-rule="evenodd" d="M7.472 7.776c.424-.007.834.158 1.14.459l.849-.874a2.811 2.811 0 0 0-1.989-.797 2.964 2.964 0 0 0-2.656 1.687l.988.788c.235-.725.893-1.263 1.668-1.263Z" fill="#EA4335"/></g><defs><clipPath id="a"><path fill="#fff" d="M0 0h27v20H0z"/></clipPath></defs></svg>
